X: 31614
T: Panel Mine, The
R: jig
M: 6/8
K: Amajor
|:EAc e3|dcd f3|ecA EAc|dBB BAc|
EAc e3|dcd f3|gaf eae|1 cAA ABc:|2 cAA A2B||
|:cee ecA|dfa f2e|cee ecA|Bcd c2B|
cee ecA|dfa f2a|gaf eae|1 cAA A2B:|2 cAA A3||

